public/instagram.svg

<svg width="91" height="92" viewBox="0 0 91 92" fill="none" xmlns="http://www.w3.org/2000/svg">
<g clip-path="url(#clip0_111_18)">
<path d="M45.5 8.2915C57.6485 8.2915 59.0893 8.3375 63.8896 8.55983C76.2201 9.12717 81.9796 15.042 82.5408 27.416C82.7607 32.2652 82.8024 33.7218 82.8024 46.0038C82.8024 58.2897 82.7569 59.7425 82.5408 64.5917C81.9758 76.9542 76.2315 82.8805 63.8896 83.4478C59.0893 83.6702 57.6561 83.7162 45.5 83.7162C33.3515 83.7162 31.9107 83.6702 27.1142 83.4478C14.7534 82.8767 9.02417 76.935 8.463 64.5878C8.24308 59.7387 8.19758 58.2858 8.19758 46C8.19758 33.718 8.24688 32.2652 8.463 27.4122C9.02796 15.042 14.7723 9.12333 27.1142 8.556C31.9145 8.3375 33.3515 8.2915 45.5 8.2915ZM45.5 0C33.143 0 31.596 0.0536667 26.7426 0.276C10.2185 1.04267 1.03513 10.3117 0.276792 27.0327C0.0530833 31.9432 0 33.5072 0 46C0 58.4928 0.0530833 60.0607 0.273 64.9673C1.03133 81.673 10.1996 90.9573 26.7388 91.724C31.596 91.9463 33.143 92 45.5 92C57.857 92 59.4078 91.9463 64.2612 91.724C80.7701 90.9573 89.9762 81.6883 90.7232 64.9673C90.9469 60.0607 91 58.4928 91 46C91 33.5072 90.9469 31.9432 90.727 27.0365C89.9838 10.3462 80.8042 1.0465 64.265 0.279833C59.4078 0.0536667 57.857 0 45.5 0ZM45.5 22.379C32.597 22.379 22.1357 32.9552 22.1357 46C22.1357 59.0448 32.597 69.6248 45.5 69.6248C58.403 69.6248 68.8643 59.0487 68.8643 46C68.8643 32.9552 58.403 22.379 45.5 22.379ZM45.5 61.3333C37.1242 61.3333 30.3333 54.4717 30.3333 46C30.3333 37.5322 37.1242 30.6667 45.5 30.6667C53.8758 30.6667 60.6667 37.5322 60.6667 46C60.6667 54.4717 53.8758 61.3333 45.5 61.3333ZM69.7894 15.9275C66.7713 15.9275 64.3256 18.4 64.3256 21.4475C64.3256 24.495 66.7713 26.9675 69.7894 26.9675C72.8038 26.9675 75.2456 24.495 75.2456 21.4475C75.2456 18.4 72.8038 15.9275 69.7894 15.9275Z" fill="#FCFCFF"/>
</g>
<defs>
<clipPath id="clip0_111_18">
<rect width="91" height="92" fill="white"/>
</clipPath>
</defs>
</svg>

<svg width="91" height="92" viewBox="0 0 91 92" fill="none" xmlns="http://www.w3.org/2000/svg"><g clip-path="url(#a)"><path d="M45.5 8.292c12.148 0 13.59.046 18.39.268 12.33.567 18.09 6.482 18.65 18.856.22 4.85.262 6.306.262 18.588 0 12.286-.045 13.739-.261 18.588-.565 12.362-6.31 18.289-18.651 18.856-4.8.222-6.234.268-18.39.268-12.148 0-13.59-.046-18.386-.268-12.36-.571-18.09-6.513-18.651-18.86-.22-4.85-.265-6.302-.265-18.588 0-12.282.049-13.735.265-18.588.565-12.37 6.31-18.289 18.651-18.856 4.8-.218 6.238-.264 18.386-.264M45.5 0C33.143 0 31.596.054 26.743.276 10.219 1.043 1.035 10.312.277 27.033.053 31.943 0 33.507 0 46s.053 14.06.273 18.967c.758 16.706 9.927 25.99 26.466 26.757 4.857.222 6.404.276 18.761.276s13.908-.054 18.761-.276c16.51-.767 25.715-10.036 26.462-26.757C90.947 60.061 91 58.493 91 46s-.053-14.057-.273-18.963C89.984 10.346 80.804 1.047 64.265.28 59.408.054 57.857 0 45.5 0m0 22.379c-12.903 0-23.364 10.576-23.364 23.621S32.597 69.625 45.5 69.625 68.864 59.049 68.864 46c0-13.045-10.461-23.621-23.364-23.621m0 38.954c-8.376 0-15.167-6.861-15.167-15.333 0-8.468 6.791-15.333 15.167-15.333S60.667 37.532 60.667 46c0 8.472-6.791 15.333-15.167 15.333m24.29-45.405c-3.019 0-5.464 2.472-5.464 5.52s2.445 5.52 5.463 5.52c3.015 0 5.457-2.473 5.457-5.52 0-3.048-2.442-5.52-5.457-5.52" fill="#FCFCFF"/></g><defs><clipPath id="a"><path fill="#fff" d="M0 0h91v92H0z"/></clipPath></defs></svg>
